X:5
T:Pipe Sergeant John Barclay
T:Thirds
R:March
L:1/8
C:Ian Duncan
M:6/8
K:D
[|: A | {g}f3 {gfg}f>ed | {gf}g>ag {afg}f2 a | {g}a>fd {e}A>df | {g}c<ea c<eA |
{g}f3 {gfg}f>ed | {gf}g>ag {afg}f2 a | {g}A>df {g}f<ad | {g}e<gc {Gdc}d2 :|]
[|: {e}A | {g}(A3 A3) | {g}(B3 B3) | {g}(d3 d)>ed | {g}(c3 c3) |
 {g}(A3 A3) | {g}B3 {G}(A3 | A3) {g}B3 | d2 c {G}A2  :|]
[|: f | {gAGAG}A3 {g}B>{d}A{e}A | {g}B<de {Gdc}d2 a | {g}a>fd {e}A>df | {g}c<ea c<eA |
{gAGAG}A3 {g}B>{d}A{e}A | {g}B<de {Gdc}d2 f | {g}A>df {g}f<ad | {g}e<gc {Gdc}d2  :|]
[|: {e}A | {g}(A3 A3) | {g}(B3 B3) | {g}(d3 d)>ed | {g}(c3 c3) |
["1" {g}(A3 A3) | {g}B3 {G}(A3 | A3) {g}B3 | d2 c {G}A2  ] :|]
["2" {g}A3 {g}B>{d}A{e}A | {g}B<de (A3 | A3) {g}B3 | d2 c {G}A2 :|]

